!!!COM: Britten, (Edward) Benjamin
!!!OTL: Canticle III for Tenor, Horn and Piano, op. 55
!!!OMV: Variation I
!!!example: 815
!!!work: Bri-35
**kern	**kern	**dynam	**kern	**dynam
*part2	*part2	*part2	*part1	*part1
*staff3	*staff2	*	*staff1	*
*I"Piano	*	*	*I"Horn in F	*
*I'Pno.	*	*	*I'Hn.	*
*clefF4	*clefG2	*	*clefF4	*
*k[]	*k[]	*	*k[]	*
*C:	*C:	*	*C:	*
*M6/8	*M6/8	*	*M6/8	*
*MM121	*MM121	*	*MM121	*
=24	=24	=24	=24	=24
8GGG-X`L 8BBB-X	4r	pp	4r	.
8GGG-` 8BBB-	.	.	.	.
8GGG-`J 8BBB-	8r	.	8r	.
8GGG-`L 8BBB-	8r	.	(16%3DL	pp
8GGG-` 8BBB-	8r	.	.	.
.	.	.	16%3F#XJ	.
8GGG-`J 8BBB-	8c` 8d 8f	.	.	.
=25	=25	=25	=25	=25
4r	8c`L 8d 8f	.	16%3AL	.
.	8c` 8d 8f	.	.	.
.	.	.	[16%3cJ	.
8r	8c`J 8d 8f	.	.	.
8BBBn`L 8DD 8AA	8c`L 8d 8f	.	4.c])	.
8BBB` 8DD 8AA	8c`J 8d 8f	.	.	.
8BBB`J 8DD 8AA	8r	.	.	.
=26	=26	=26	=26	=26
8BBB`L 8DD 8AA	8r	.	2.Fn	.
8BBB` 8DD 8AA	8e-X`L 8f 8b-X	.	.	.
8BBB`J 8DD 8AA	8e-`J 8f 8b-	.	.	.
4.r	8e-`L 8f 8b-	.	.	.
.	8e-` 8f 8b-	.	.	.
.	8e-`J 8f 8b-	.	.	.
*	*	*	*clefG2	*
=27	=27	=27	=27	=27
!	!LO:TX:b:t=cresc.	!	!LO:TX:b:t=cresc.	!
8AAA-X`L 8BBB-X 8AA-X	8e-X` 8f 8b-X	.	(16%3dL	.
8AAA-` 8BBB- 8AA-	8r	.	.	.
.	.	.	16%3B-XJ	.
8AAA-`J 8BBB- 8AA-	8r	.	.	.
8AAA-`L 8BBB- 8AA-	8r	.	16%3GL	.
*	*clefF4	*	*	*
8AAA-` 8BBB- 8AA-	8r	.	.	.
.	.	.	[16%3EJ	.
8AAA-`J 8BBB- 8AA-	8En` 8B-X 8d-X	.	.	.
=28	=28	=28	=28	=28
8r	8En`L 8B-X 8d-X	.	4.E])	.
8r	8E` 8B- 8d-	.	.	.
8AAAn` 8GGn	8E`J 8B- 8d-	.	.	.
8AAA`L 8GG	8E`L 8B- 8d-	.	[4.c~	.
8AAA` 8GG	8E`J 8B- 8d-	.	.	.
8AAA`J 8GG	8r	.	.	.
*	*clefG2	*	*	*
=29	=29	=29	=29	=29
8AAA`L 8GG	8f#X`L 8cc#X 8ff#X	.	4.c]	.
8AAA`J 8GG	8f#` 8cc# 8ff#	.	.	.
8r	8f#`J 8cc# 8ff#	.	.	.
8BB`L 8D#X 8G#X	8f#`L 8cc# 8ff#	.	4.r	.
8BB` 8D# 8G#	8f#` 8cc# 8ff#	.	.	.
8BB`J 8D# 8G#	8f#`J 8cc# 8ff#	mf	.	.
=30	=30	=30	=30	=30
8BB`L 8D#X 8G#X	8r	.	(16%3A-XL	p
8BB` 8D# 8G#	8r	.	.	.
.	.	.	16%3c-XJ	.
8BB`J 8D# 8G#	8d-X` 8e-X 8b-X	.	.	.
8r	8d-`L 8e- 8b-	.	16%3e-XL)	.
8Fn`L 8Gn	8d-` 8e- 8b-	.	.	.
.	.	.	[16%3B-X~J	.
8F`J 8G	8d-`J 8e- 8b-	.	.	.
=31	=31	=31	=31	=31
8F`L 8G	8d-X`L 8e-X 8b-X	<	16%3B-L]	.
8F` 8G	8d-`J 8e- 8b-	.	.	.
.	.	.	(16%3gJ	<
8F`J 8G	8r	.	.	.
*	*clefF4	*	*	*
8F` 8G	8AA-X`L 8D-X	[ f	16%3enL	.
8r	8AA-` 8D-	.	.	.
.	.	.	16%3c#XJ)	[
8r	8AA-`J 8D-	.	.	.
=	=	=	=	=
*-	*-	*-	*-	*-
!!!system-decoration: s1{(s2,s3)}
!!!CDT: 1913/11/22-1976/12/04
!!!CBL: Lowestoft, England
!!!CDL: Aldeburgh, England
!!!CNT: English
!!!AGN: Vocal; Solo
!!!MCN:
!!!MDT: 1955/01/28
!!!MGN:
!!!MLC: London, United Kingdom
!!!MPD: 1955
!!!MPN: Brain, Dennis; Britten, Benjamin; Pears, Peter
!!!ODT: 1954
!!!PDT: 1956
!!!excerpt-start-measure: 24
!!!excerpt-end-measure: 31
!!!excerpt-start-time: 2:24
!!!excerpt-end-time: 2:38
!!!EEV: 2020/01/27
!!!ONB: Converted from MusicXML on 2020/01/27
